symbols/web/nest_connect/materialsymbolsoutlined/nest_connect_wght300grad200_20px.svg

<svg xmlns="http://www.w3.org/2000/svg" height="20" width="20"><path d="M10 16.729q-1.938 0-3.302-1.364Q5.333 14 5.333 12.062V7.938q0-1.938 1.365-3.303Q8.062 3.271 10 3.271t3.302 1.364Q14.667 6 14.667 7.938v4.124q0 1.938-1.365 3.303-1.364 1.364-3.302 1.364Zm0-1.875q1.146 0 1.969-.812.823-.813.823-1.98V7.938q0-1.167-.813-1.98-.812-.812-1.979-.812-1.146 0-1.969.812-.823.813-.823 1.98v4.124q0 1.167.813 1.98.812.812 1.979.812Zm-5.625 4.563q-.896 0-1.51-.615-.615-.614-.615-1.51V2.708q0-.896.615-1.51.614-.615 1.51-.615h11.25q.896 0 1.51.615.615.614.615 1.51v14.584q0 .896-.615 1.51-.614.615-1.51.615Zm0-1.875h11.25q.104 0 .177-.073t.073-.177V2.708q0-.104-.073-.177t-.177-.073H4.375q-.104 0-.177.073t-.073.177v14.584q0 .104.073.177t.177.073ZM10 8.562q-.375 0-.677-.302-.302-.302-.302-.698 0-.374.302-.666.302-.292.677-.292.375 0 .677.292.302.292.302.687 0 .375-.302.677-.302.302-.677.302Z"/></svg>

<svg xmlns="http://www.w3.org/2000/svg" height="20" width="20"><path d="M10 16.729Q8.062 16.729 6.698 15.365Q5.333 14 5.333 12.062V7.938Q5.333 6 6.698 4.635Q8.062 3.271 10 3.271Q11.938 3.271 13.302 4.635Q14.667 6 14.667 7.938V12.062Q14.667 14 13.302 15.365Q11.938 16.729 10 16.729ZM10 14.854Q11.146 14.854 11.969 14.042Q12.792 13.229 12.792 12.062V7.938Q12.792 6.771 11.979 5.958Q11.167 5.146 10 5.146Q8.854 5.146 8.031 5.958Q7.208 6.771 7.208 7.938V12.062Q7.208 13.229 8.021 14.042Q8.833 14.854 10 14.854ZM4.375 19.417Q3.479 19.417 2.865 18.802Q2.25 18.188 2.25 17.292V2.708Q2.25 1.812 2.865 1.198Q3.479 0.583 4.375 0.583H15.625Q16.521 0.583 17.135 1.198Q17.75 1.812 17.75 2.708V17.292Q17.75 18.188 17.135 18.802Q16.521 19.417 15.625 19.417ZM4.375 17.542H15.625Q15.729 17.542 15.802 17.469Q15.875 17.396 15.875 17.292V2.708Q15.875 2.604 15.802 2.531Q15.729 2.458 15.625 2.458H4.375Q4.271 2.458 4.198 2.531Q4.125 2.604 4.125 2.708V17.292Q4.125 17.396 4.198 17.469Q4.271 17.542 4.375 17.542ZM10 8.562Q9.625 8.562 9.323 8.26Q9.021 7.958 9.021 7.562Q9.021 7.188 9.323 6.896Q9.625 6.604 10 6.604Q10.375 6.604 10.677 6.896Q10.979 7.188 10.979 7.583Q10.979 7.958 10.677 8.26Q10.375 8.562 10 8.562Z"/></svg>
